X:5
T:God Rest Ye Merry Gentlemen
C:xmas
M:4/4
L:1/8
Q:1/8=260
K:G
[E2G,2]|[E2G,2][B2E2] [B2E2][A2D2]|[G2B,2][F2A,2] [E2G,2][D2G,2]|[E2G,2][F2A,2] [G2B,2][A2D2]|[BE][BE][BE][B3E3][E2G,2]|
[E2G,2][B2E2] [B2E2][A2D2]|[G2B,2][F2A,2] [E2G,2][D2G,2]|[E2G,2][F2A,2][G2B,2][A2D2]|[BE][BE][BE][B3E3]E2|
[c2E2]A2 [B2D2]c2|[d2F2]e2 [B2D2]A2|[G2B,2]E2 [F2A,2][G2B,2]|[AD][AD][A2D2] [G2B,2]A2|
[B4D4] [c2E2][B2D2]|[B2D2]A2 [G2B,2][F2A,2]|[EG,][EG,][E2G,2] GFE2|[AD][AD][A2D2] [G2B,2][A2D2]|
[B2D2][c2E2] d2e2|[B2D2][A2D2] [G2^D2][F2D2]|[E8G,8]
